; generated by PrusaSlicer 2.3.0+win64 on 2021-09-05 at 17:02:42 UTC

; 

; external perimeters extrusion width = 0.60mm
; perimeters extrusion width = 0.50mm
; infill extrusion width = 0.50mm
; solid infill extrusion width = 0.50mm
; top infill extrusion width = 0.45mm
; support material extrusion width = 0.38mm
; first layer extrusion width = 0.42mm

M73 P0 R85
M73 Q0 S86
M201 X1000 Y1000 Z200 E5000 ; sets maximum accelerations, mm/sec^2
M203 X200 Y200 Z12 E120 ; sets maximum feedrates, mm/sec
M204 P1250 R1250 T1250 ; sets acceleration (P, T) and retract acceleration (R), mm/sec^2
M205 X8.00 Y8.00 Z0.40 E4.50 ; sets the jerk limits, mm/sec
M205 S0 T0 ; sets the minimum extruding and travel feed rate, mm/sec
M107
;TYPE:Custom
M862.3 P "MK3S" ; printer model check
M862.1 P0.4 ; nozzle diameter check
M115 U3.9.3 ; tell printer latest fw version
G90 ; use absolute coordinates
M83 ; extruder relative mode
M104 S240 ; set extruder temp
M140 S85 ; set bed temp
M190 S85 ; wait for bed temp
M109 S240 ; wait for extruder temp
G28 W ; home all without mesh bed level
G80 ; mesh bed leveling
G1 Y-3.0 F1000.0 ; go outside print area
G92 E0.0
G1 X60.0 E9.0 F1000.0 ; intro line
G1 X100.0 E12.5 F1000.0 ; intro line
G92 E0.0
M221 S95

; Don't change E values below. Excessive value can damage the printer.

M907 E538 ; set extruder motor current
G21 ; set units to millimeters
G90 ; use absolute coordinates
M83 ; use relative distances for extrusion
M900 K0.08 ; Filament gcode LA 1.5
M900 K45 ; Filament gcode LA 1.0
;LAYER_CHANGE
;Z:0.2
;HEIGHT:0.2
;BEFORE_LAYER_CHANGE
G92 E0.0
;0.2


G1 E-1.40000 F2100.000
G1 Z0.200 F10800.000
;AFTER_LAYER_CHANGE
;0.2
G1 Z0.400
G1 X117.759 Y58.110
G1 Z0.200
G1 E1.40000 F2100.000
M204 S1000
;TYPE:Skirt
;WIDTH:0.42
G1 F1200.000
G1 X118.573 Y57.883 E0.02649
G1 X124.868 Y57.873 E0.19739
G1 X125.559 Y57.977 E0.02190
G1 X126.189 Y58.276 E0.02190
G1 X166.537 Y85.567 E1.52729
G1 X166.933 Y85.906 E0.01633
G1 X167.244 Y86.323 E0.01633
G1 X167.552 Y87.214 E0.02954
G1 X170.685 Y111.839 E0.77832
G1 X170.690 Y134.335 E0.70536
G1 X170.633 Y134.830 E0.01562
G1 X170.474 Y135.302 E0.01562
G1 X170.225 Y135.725 E0.01538
G1 X169.894 Y136.087 E0.01538
G1 X169.496 Y136.374 E0.01538
G1 X169.052 Y136.572 E0.01526
G1 X119.242 Y152.086 E1.63576
G1 X82.792 Y152.127 E1.14284
G1 X82.294 Y152.072 E0.01574
G1 X81.814 Y151.911 E0.01585
G1 X81.255 Y151.553 E0.02083
G1 X80.818 Y151.057 E0.02071
G1 X80.535 Y150.460 E0.02071
G1 X80.427 Y149.808 E0.02071
G1 X80.427 Y105.239 E1.39745
G1 X80.482 Y104.740 E0.01574
G1 X80.643 Y104.260 E0.01585
G1 X80.945 Y103.768 E0.01811
G1 X117.073 Y58.610 E1.81327
G1 X117.710 Y58.146 E0.02473
; printing object Body17.stl id:1 copy 0
;WIPE_START
G1 F8640.000
G1 X118.573 Y57.883 E-0.20812
G1 X123.431 Y57.875 E-1.12188
;WIPE_END
G1 E-0.07000 F2100.000
G1 Z0.400 F10800.000
G1 X122.591 Y63.950
G1 Z0.200
G1 E1.40000 F2100.000
;TYPE:Perimeter
G1 F1200.000
G1 X118.017 Y63.950 E0.14342
G1 X118.017 Y81.048 E0.53612
G1 X120.968 Y81.048 E0.09252
G1 X120.063 Y95.963 E0.46849
G1 X118.017 Y95.963 E0.06416
G1 X118.017 Y148.963 E1.66178
G1 X83.591 Y148.963 E1.07940
G1 X83.591 Y105.526 E1.36193
G1 X119.182 Y61.037 E1.78637
G1 X124.077 Y61.037 E0.15349
G1 X124.077 Y62.583 E0.04848
G1 X123.542 Y65.538 E0.09414
G1 X122.429 Y68.454 E0.09789
G1 X122.591 Y66.788 E0.05251
G1 X122.591 Y64.010 E0.08710
G1 X122.214 Y64.327 F10800.000
;TYPE:External perimeter
G1 F1200.000
G1 X118.394 Y64.327 E0.11977
G1 X118.394 Y80.671 E0.51247
G1 X121.368 Y80.671 E0.09326
G1 X120.418 Y96.340 E0.49218
M73 Q0 S85
G1 X118.394 Y96.340 E0.06346
G1 X118.394 Y149.340 E1.66178
G1 X83.214 Y149.340 E1.10304
M73 P0 R84
G1 X83.214 Y105.394 E1.37790
G1 X119.001 Y60.660 E1.79620
G1 X124.454 Y60.660 E0.17099
G1 X124.454 Y62.617 E0.06136
G1 X123.907 Y65.639 E0.09630
G1 X122.501 Y69.324 E0.12367
G1 X122.340 Y69.808 E0.01598
G1 X121.967 Y71.258 E0.04693
G1 X121.803 Y71.686 E0.01439
G1 X121.639 Y71.919 E0.00895
G1 X121.581 Y71.921 E0.00181
G1 X121.557 Y71.783 E0.00439
G1 X121.662 Y70.916 E0.02740
G1 X121.862 Y70.012 E0.02901
G1 X121.944 Y69.545 E0.01488
G1 X122.214 Y66.769 E0.08744
G1 X122.214 Y64.387 E0.07470
G1 X122.221 Y63.927 F10800.000
;WIPE_START
G1 F8640.000
G1 X118.394 Y64.327 E-0.88216
G1 X118.394 Y66.266 E-0.44784
;WIPE_END
G1 E-0.07000 F2100.000
G1 Z0.400 F10800.000
G1 X122.934 Y66.170
G1 Z0.200
G1 E1.40000 F2100.000
;TYPE:Gap fill
;WIDTH:0.304242
G1 F1200.000
G1 X122.905 Y66.327 E0.00346
;WIDTH:0.258365
G1 X122.876 Y66.484 E0.00285
;WIDTH:0.212487
G1 X122.847 Y66.640 E0.00224
;WIDTH:0.16661
G1 X122.818 Y66.797 E0.00164
;WIDTH:0.120734
G1 X122.789 Y66.920 E0.00082
;WIPE_START
G1 F8640.000
G1 X122.818 Y66.797 E-0.02936
;WIPE_END
G1 E-1.37064 F2100.000
G1 Z0.400 F10800.000
G1 X122.386 Y68.638
G1 Z0.200
G1 E1.40000 F2100.000
;WIDTH:0.33116
G1 F1200.000
G1 X122.339 Y68.836 E0.00487
;WIDTH:0.289704
G1 X122.293 Y69.034 E0.00417
;WIDTH:0.248248
G1 X122.246 Y69.231 E0.00347
;WIDTH:0.206791
G1 X122.210 Y69.405 E0.00241
;WIDTH:0.167018
G1 X122.174 Y69.575 E0.00179
;WIDTH:0.128121
G1 X122.131 Y69.745 E0.00124
;WIDTH:0.102271
G1 X122.101 Y69.883 E0.00070
;WIPE_START
G1 F8640.000
G1 X122.131 Y69.745 E-0.03260
;WIPE_END
G1 E-1.36740 F2100.000
G1 Z0.400 F10800.000
G1 X123.202 Y61.150
G1 Z0.200
G1 E1.40000 F2100.000
;TYPE:Solid infill
;WIDTH:0.420147
G1 F1200.000
G1 X123.794 Y61.743 E0.02630
G1 X123.794 Y62.277 E0.01673
G1 X122.838 Y61.320 E0.04244
G1 X122.304 Y61.320 E0.01673
G1 X123.756 Y62.771 E0.06439
G1 X123.674 Y63.223 E0.01440
G1 X121.771 Y61.320 E0.08442
G1 X121.237 Y61.320 E0.01673
G1 X123.592 Y63.675 E0.10446
G1 X123.510 Y64.126 E0.01440
G1 X120.704 Y61.320 E0.12450
G1 X120.170 Y61.320 E0.01673
G1 X122.517 Y63.667 E0.10411
G1 X122.874 Y63.667 E0.01118
G1 X122.874 Y64.023 E0.01118
G1 X123.429 Y64.578 E0.02462
G1 X123.347 Y65.030 E0.01440
G1 X122.874 Y64.557 E0.02099
G1 X122.874 Y65.090 E0.01673
G1 X123.262 Y65.479 E0.01723
G1 X123.115 Y65.865 E0.01296
G1 X122.704 Y65.454 E0.01822
;WIPE_START
G1 F8640.000
G1 X123.115 Y65.865 E-0.13415
G1 X123.262 Y65.479 E-0.09543
G1 X122.874 Y65.090 E-0.12687
G1 X122.874 Y64.557 E-0.12318
G1 X123.347 Y65.030 E-0.15453
G1 X123.429 Y64.578 E-0.10599
G1 X122.874 Y64.023 E-0.18124
G1 X122.874 Y63.667 E-0.08228
G1 X122.517 Y63.667 E-0.08228
G1 X121.770 Y62.919 E-0.24404
;WIPE_END
M73 P1 R84
G1 E-0.07000 F2100.000
G1 Z0.400 F10800.000
G1 X122.154 Y63.836
G1 Z0.200
G1 E1.40000 F2100.000
G1 F1200.000
G1 X119.637 Y61.320 E0.11163
M73 Q1 S85
G1 X119.318 Y61.320 E0.01000
G1 X119.223 Y61.439 E0.00479
G1 X121.450 Y63.667 E0.09882
G1 X120.917 Y63.667 E0.01673
G1 X118.986 Y61.735 E0.08567
G1 X118.748 Y62.032 E0.01191
G1 X120.383 Y63.667 E0.07253
G1 X119.850 Y63.667 E0.01673
G1 X118.511 Y62.328 E0.05938
G1 X118.274 Y62.625 E0.01191
G1 X119.316 Y63.667 E0.04623
G1 X118.783 Y63.667 E0.01673
G1 X118.037 Y62.921 E0.03308
G1 X117.800 Y63.217 E0.01191
G1 X118.249 Y63.667 E0.01994
G1 X117.734 Y63.667 E0.01617
G1 X117.734 Y63.685 E0.00056
G1 X117.563 Y63.514 E0.00759
G1 X117.326 Y63.810 E0.01191
G1 X117.734 Y64.218 E0.01810
G1 X117.734 Y64.752 E0.01673
G1 X117.089 Y64.106 E0.02862
G1 X116.852 Y64.403 E0.01191
G1 X117.734 Y65.285 E0.03914
G1 X117.734 Y65.819 E0.01673
G1 X116.615 Y64.699 E0.04966
G1 X116.377 Y64.996 E0.01191
G1 X117.734 Y66.352 E0.06017
G1 X117.734 Y66.886 E0.01673
G1 X116.140 Y65.292 E0.07069
G1 X115.903 Y65.588 E0.01191
G1 X117.734 Y67.419 E0.08121
G1 X117.734 Y67.953 E0.01673
G1 X115.666 Y65.885 E0.09173
G1 X115.429 Y66.181 E0.01191
G1 X117.734 Y68.486 E0.10224
G1 X117.734 Y69.020 E0.01673
G1 X115.192 Y66.477 E0.11276
G1 X114.955 Y66.774 E0.01191
G1 X117.734 Y69.553 E0.12328
G1 X117.734 Y70.086 E0.01673
G1 X114.718 Y67.070 E0.13380
G1 X114.481 Y67.367 E0.01191
G1 X117.734 Y70.620 E0.14431
G1 X117.734 Y71.153 E0.01673
G1 X114.244 Y67.663 E0.15483
G1 X114.006 Y67.959 E0.01191
G1 X117.734 Y71.687 E0.16535
G1 X117.734 Y72.220 E0.01673
G1 X113.769 Y68.256 E0.17587
G1 X113.532 Y68.552 E0.01191
G1 X117.734 Y72.754 E0.18638
G1 X117.734 Y73.287 E0.01673
G1 X113.295 Y68.849 E0.19690
G1 X113.058 Y69.145 E0.01191
G1 X117.734 Y73.821 E0.20742
G1 X117.734 Y74.354 E0.01673
G1 X112.821 Y69.441 E0.21794
G1 X112.584 Y69.738 E0.01191
G1 X117.734 Y74.888 E0.22845
G1 X117.734 Y75.421 E0.01673
G1 X112.347 Y70.034 E0.23897
G1 X112.110 Y70.330 E0.01191
G1 X117.734 Y75.955 E0.24949
G1 X117.734 Y76.488 E0.01673
G1 X111.872 Y70.627 E0.26001
G1 X111.635 Y70.923 E0.01191
G1 X117.734 Y77.022 E0.27053
G1 X117.734 Y77.555 E0.01673
G1 X111.398 Y71.220 E0.28104
G1 X111.161 Y71.516 E0.01191
G1 X117.734 Y78.089 E0.29156
G1 X117.734 Y78.622 E0.01673
G1 X110.924 Y71.812 E0.30208
G1 X110.687 Y72.109 E0.01191
G1 X117.734 Y79.156 E0.31260
G1 X117.734 Y79.689 E0.01673
G1 X110.450 Y72.405 E0.32311
G1 X110.213 Y72.701 E0.01191
G1 X117.734 Y80.223 E0.33363
G1 X117.734 Y80.756 E0.01673
G1 X109.855 Y72.877 E0.34950
;WIPE_START
G1 F8640.000
G1 X113.928 Y76.950 E-1.33000
;WIPE_END
G1 E-0.07000 F2100.000
G1 Z0.400 F10800.000
G1 X120.273 Y81.162
G1 Z0.200
G1 E1.40000 F2100.000
G1 F1200.000
G1 X120.654 Y81.542 E0.01690
G1 X120.624 Y82.045 E0.01581
G1 X119.910 Y81.331 E0.03168
G1 X119.376 Y81.331 E0.01673
G1 X120.593 Y82.548 E0.05400
G1 X120.563 Y83.051 E0.01581
G1 X118.843 Y81.331 E0.07631
G1 X118.309 Y81.331 E0.01673
G1 X120.532 Y83.554 E0.09862
G1 X120.502 Y84.057 E0.01581
G1 X109.739 Y73.294 E0.47744
G1 X109.501 Y73.591 E0.01191
G1 X120.471 Y84.560 E0.48661
G1 X120.441 Y85.063 E0.01581
G1 X109.264 Y73.887 E0.49577
G1 X109.027 Y74.183 E0.01191
G1 X120.410 Y85.566 E0.50494
G1 X120.380 Y86.069 E0.01581
G1 X108.790 Y74.480 E0.51410
G1 X108.553 Y74.776 E0.01191
G1 X120.349 Y86.572 E0.52327
G1 X120.319 Y87.075 E0.01581
G1 X108.316 Y75.072 E0.53243
G1 X108.079 Y75.369 E0.01191
G1 X120.288 Y87.578 E0.54159
G1 X120.258 Y88.081 E0.01581
G1 X107.842 Y75.665 E0.55076
G1 X107.605 Y75.962 E0.01191
G1 X120.227 Y88.584 E0.55992
G1 X120.197 Y89.087 E0.01581
G1 X107.368 Y76.258 E0.56909
G1 X107.130 Y76.554 E0.01191
G1 X120.166 Y89.590 E0.57825
G1 X120.136 Y90.093 E0.01581
G1 X106.893 Y76.851 E0.58742
G1 X106.656 Y77.147 E0.01191
G1 X120.105 Y90.596 E0.59658
G1 X120.075 Y91.099 E0.01581
G1 X106.419 Y77.443 E0.60575
G1 X106.182 Y77.740 E0.01191
G1 X120.044 Y91.602 E0.61491
G1 X120.014 Y92.105 E0.01581
G1 X105.945 Y78.036 E0.62408
G1 X105.708 Y78.333 E0.01191
G1 X119.983 Y92.608 E0.63324
G1 X119.953 Y93.111 E0.01581
G1 X105.471 Y78.629 E0.64240
G1 X105.234 Y78.925 E0.01191
G1 X119.922 Y93.614 E0.65157
G1 X119.892 Y94.117 E0.01581
G1 X104.997 Y79.222 E0.66073
G1 X104.759 Y79.518 E0.01191
G1 X119.861 Y94.620 E0.66990
G1 X119.831 Y95.123 E0.01581
G1 X104.522 Y79.814 E0.67906
G1 X104.285 Y80.111 E0.01191
G1 X119.800 Y95.626 E0.68823
G1 X119.797 Y95.680 E0.00171
G1 X119.321 Y95.680 E0.01493
G1 X104.048 Y80.407 E0.67749
G1 X103.811 Y80.704 E0.01191
G1 X118.788 Y95.680 E0.66434
G1 X118.254 Y95.680 E0.01673
G1 X103.574 Y81.000 E0.65120
G1 X103.337 Y81.296 E0.01191
G1 X117.734 Y95.693 E0.63864
G1 X117.734 Y96.227 E0.01673
G1 X103.100 Y81.593 E0.64916
G1 X102.863 Y81.889 E0.01191
G1 X117.734 Y96.760 E0.65968
G1 X117.734 Y97.294 E0.01673
G1 X102.626 Y82.186 E0.67019
G1 X102.388 Y82.482 E0.01191
G1 X117.734 Y97.827 E0.68071
G1 X117.734 Y98.361 E0.01673
G1 X102.151 Y82.778 E0.69123
M73 Q1 S84
G1 X101.914 Y83.075 E0.01191
G1 X117.734 Y98.894 E0.70175
G1 X117.734 Y99.428 E0.01673
G1 X101.677 Y83.371 E0.71226
G1 X101.440 Y83.667 E0.01191
G1 X117.734 Y99.961 E0.72278
G1 X117.734 Y100.495 E0.01673
M73 P1 R83
G1 X101.203 Y83.964 E0.73330
G1 X100.966 Y84.260 E0.01191
G1 X117.734 Y101.028 E0.74382
M73 P2 R83
G1 X117.734 Y101.562 E0.01673
G1 X100.729 Y84.557 E0.75434
M73 Q2 S84
G1 X100.492 Y84.853 E0.01191
G1 X117.734 Y102.095 E0.76485
G1 X117.734 Y102.629 E0.01673
G1 X100.254 Y85.149 E0.77537
G1 X100.017 Y85.446 E0.01191
G1 X117.734 Y103.162 E0.78589
G1 X117.734 Y103.696 E0.01673
G1 X99.780 Y85.742 E0.79641
G1 X99.543 Y86.038 E0.01191
G1 X117.734 Y104.229 E0.80692
G1 X117.734 Y104.763 E0.01673
G1 X99.306 Y86.335 E0.81744
G1 X99.069 Y86.631 E0.01191
G1 X117.734 Y105.296 E0.82796
G1 X117.734 Y105.830 E0.01673
G1 X98.832 Y86.928 E0.83848
G1 X98.595 Y87.224 E0.01191
G1 X117.734 Y106.363 E0.84899
G1 X117.734 Y106.897 E0.01673
G1 X98.358 Y87.520 E0.85951
G1 X98.121 Y87.817 E0.01191
G1 X117.734 Y107.430 E0.87003
G1 X117.734 Y107.964 E0.01673
G1 X97.883 Y88.113 E0.88055
G1 X97.646 Y88.409 E0.01191
G1 X117.734 Y108.497 E0.89106
G1 X117.734 Y109.030 E0.01673
G1 X97.409 Y88.706 E0.90158
G1 X97.172 Y89.002 E0.01191
G1 X117.734 Y109.564 E0.91210
G1 X117.734 Y110.097 E0.01673
G1 X96.935 Y89.299 E0.92262
G1 X96.698 Y89.595 E0.01191
G1 X117.734 Y110.631 E0.93313
G1 X117.734 Y111.164 E0.01673
G1 X96.461 Y89.891 E0.94365
G1 X96.224 Y90.188 E0.01191
G1 X117.734 Y111.698 E0.95417
G1 X117.734 Y112.231 E0.01673
G1 X95.987 Y90.484 E0.96469
G1 X95.750 Y90.780 E0.01191
G1 X117.734 Y112.765 E0.97521
G1 X117.734 Y113.298 E0.01673
G1 X95.512 Y91.077 E0.98572
G1 X95.275 Y91.373 E0.01191
G1 X117.734 Y113.832 E0.99624
G1 X117.734 Y114.365 E0.01673
G1 X95.038 Y91.670 E1.00676
G1 X94.801 Y91.966 E0.01191
G1 X117.734 Y114.899 E1.01728
G1 X117.734 Y115.432 E0.01673
G1 X94.564 Y92.262 E1.02779
G1 X94.327 Y92.559 E0.01191
G1 X117.734 Y115.966 E1.03831
G1 X117.734 Y116.499 E0.01673
G1 X94.090 Y92.855 E1.04883
G1 X93.853 Y93.151 E0.01191
G1 X117.734 Y117.033 E1.05935
G1 X117.734 Y117.566 E0.01673
G1 X93.616 Y93.448 E1.06986
G1 X93.379 Y93.744 E0.01191
G1 X117.734 Y118.100 E1.08038
G1 X117.734 Y118.633 E0.01673
G1 X93.141 Y94.041 E1.09090
G1 X92.904 Y94.337 E0.01191
G1 X117.734 Y119.167 E1.10142
M73 P3 R83
G1 X117.734 Y119.700 E0.01673
G1 X92.667 Y94.633 E1.11193
M73 Q3 S84
G1 X92.430 Y94.930 E0.01191
G1 X117.734 Y120.234 E1.12245
M73 Q3 S83
G1 X117.734 Y120.767 E0.01673
G1 X92.193 Y95.226 E1.13297
G1 X91.956 Y95.522 E0.01191
G1 X117.734 Y121.301 E1.14349
M73 P3 R82
G1 X117.734 Y121.834 E0.01673
G1 X91.719 Y95.819 E1.15400
G1 X91.482 Y96.115 E0.01191
G1 X117.734 Y122.367 E1.16452
G1 X117.734 Y122.901 E0.01673
G1 X91.245 Y96.412 E1.17504
G1 X91.008 Y96.708 E0.01191
G1 X117.734 Y123.434 E1.18556
G1 X117.734 Y123.968 E0.01673
G1 X90.770 Y97.004 E1.19608
G1 X90.533 Y97.301 E0.01191
G1 X117.734 Y124.501 E1.20659
G1 X117.734 Y125.035 E0.01673
G1 X90.296 Y97.597 E1.21711
G1 X90.059 Y97.894 E0.01191
G1 X117.734 Y125.568 E1.22763
G1 X117.734 Y126.102 E0.01673
G1 X89.822 Y98.190 E1.23815
G1 X89.585 Y98.486 E0.01191
G1 X117.734 Y126.635 E1.24866
G1 X117.734 Y127.169 E0.01673
G1 X89.348 Y98.783 E1.25918
G1 X89.111 Y99.079 E0.01191
G1 X117.734 Y127.702 E1.26970
G1 X117.734 Y128.236 E0.01673
G1 X88.874 Y99.375 E1.28022
G1 X88.636 Y99.672 E0.01191
G1 X117.734 Y128.769 E1.29073
G1 X117.734 Y129.303 E0.01673
G1 X88.399 Y99.968 E1.30125
G1 X88.162 Y100.265 E0.01191
G1 X117.734 Y129.836 E1.31177
G1 X117.734 Y130.370 E0.01673
G1 X87.925 Y100.561 E1.32229
G1 X87.688 Y100.857 E0.01191
G1 X117.734 Y130.903 E1.33280
G1 X117.734 Y131.437 E0.01673
G1 X87.451 Y101.154 E1.34332
G1 X87.214 Y101.450 E0.01191
G1 X117.734 Y131.970 E1.35384
G1 X117.734 Y132.504 E0.01673
G1 X86.977 Y101.746 E1.36436
G1 X86.740 Y102.043 E0.01191
G1 X117.734 Y133.037 E1.37487
M73 P4 R82
G1 X117.734 Y133.571 E0.01673
M73 Q4 S83
G1 X86.503 Y102.339 E1.38539
G1 X86.265 Y102.636 E0.01191
G1 X117.734 Y134.104 E1.39591
G1 X117.734 Y134.637 E0.01673
G1 X86.028 Y102.932 E1.40643
G1 X85.791 Y103.228 E0.01191
G1 X117.734 Y135.171 E1.41694
G1 X117.734 Y135.704 E0.01673
G1 X85.554 Y103.525 E1.42746
M73 Q4 S82
G1 X85.317 Y103.821 E0.01191
G1 X117.734 Y136.238 E1.43798
G1 X117.734 Y136.771 E0.01673
G1 X85.080 Y104.117 E1.44850
M73 P4 R81
G1 X84.843 Y104.414 E0.01191
G1 X117.734 Y137.305 E1.45902
G1 X117.734 Y137.838 E0.01673
G1 X84.606 Y104.710 E1.46953
G1 X84.369 Y105.007 E0.01191
G1 X117.734 Y138.372 E1.48005
G1 X117.734 Y138.905 E0.01673
G1 X84.132 Y105.303 E1.49057
G1 X83.894 Y105.599 E0.01191
G1 X117.734 Y139.439 E1.50109
G1 X117.734 Y139.972 E0.01673
G1 X83.874 Y106.112 E1.50201
G1 X83.874 Y106.646 E0.01673
G1 X117.734 Y140.506 E1.50201
G1 X117.734 Y141.039 E0.01673
G1 X83.874 Y107.179 E1.50201
