; generated by PrusaSlicer 2.2.0+win64 on 2021-07-23 at 22:25:13 UTC

; 

; external perimeters extrusion width = 0.60mm
; perimeters extrusion width = 0.50mm
; infill extrusion width = 0.50mm
; solid infill extrusion width = 0.50mm
; top infill extrusion width = 0.45mm
; support material extrusion width = 0.38mm
; first layer extrusion width = 0.42mm

M73 P0 R78
M73 Q0 S79
M201 X1000 Y1000 Z200 E5000 ; sets maximum accelerations, mm/sec^2
M203 X200 Y200 Z12 E120 ; sets maximum feedrates, mm/sec
M204 P1250 R1250 T1250 ; sets acceleration (P, T) and retract acceleration (R), mm/sec^2
M205 X8.00 Y8.00 Z0.40 E4.50 ; sets the jerk limits, mm/sec
M205 S0 T0 ; sets the minimum extruding and travel feed rate, mm/sec
M107
M862.3 P "MK3S" ; printer model check
M862.1 P0.4 ; nozzle diameter check
M115 U3.10.0 ; tell printer latest fw version
G90 ; use absolute coordinates
M83 ; extruder relative mode
M104 S240 ; set extruder temp
M140 S85 ; set bed temp
M190 S85 ; wait for bed temp
M109 S240 ; wait for extruder temp
G28 W ; home all without mesh bed level
G80 ; mesh bed leveling
G1 Y-3.0 F1000.0 ; go outside print area
G92 E0.0
G1 X60.0 E9.0 F1000.0 ; intro line
M73 Q0 S79
M73 P0 R78
G1 X100.0 E12.5 F1000.0 ; intro line
G92 E0.0
M221 S95

; Don't change E values below. Excessive value can damage the printer.

M907 E538 ; set extruder motor current
G21 ; set units to millimeters
G90 ; use absolute coordinates
M83 ; use relative distances for extrusion
M900 K0.08 ; Filament gcode LA 1.5
M900 K45 ; Filament gcode LA 1.0
;BEFORE_LAYER_CHANGE
G92 E0.0
;0.2


G1 E-1.40000 F2100.00000
G1 Z0.200 F10800.000
;AFTER_LAYER_CHANGE
;0.2
G1 Z0.400
G1 X60.567 Y98.233
G1 Z0.200
G1 E1.40000 F2100.00000
M204 S1000
G1 F1200.000
G1 X61.008 Y97.625 E0.02355
G1 X61.526 Y97.233 E0.02036
G1 X69.819 Y92.690 E0.29650
G1 X139.610 Y58.205 E2.44082
G1 X140.535 Y57.986 E0.02977
G1 X146.682 Y57.985 E0.19276
G1 X147.336 Y58.078 E0.02071
G1 X147.943 Y58.349 E0.02083
G1 X148.451 Y58.778 E0.02083
G1 X148.818 Y59.327 E0.02071
G1 X149.050 Y60.205 E0.02849
G1 X149.053 Y62.877 E0.08376
G1 X142.988 Y150.043 E2.73963
G1 X142.777 Y150.857 E0.02637
G1 X142.298 Y151.544 E0.02626
G1 X141.545 Y152.051 E0.02849
G1 X140.660 Y152.239 E0.02837
G1 X104.485 Y152.236 E1.13424
G1 X59.295 Y147.451 E1.42482
G1 X58.537 Y147.230 E0.02473
G1 X57.891 Y146.771 E0.02484
G1 X57.389 Y146.032 E0.02802
G1 X57.196 Y145.160 E0.02802
G1 X57.199 Y122.620 E0.70672
G1 X60.338 Y98.949 E0.74870
G1 X60.549 Y98.291 E0.02167
; printing object Open_Duco_Moisture_Sensor_BOTTOM.stl id:1 copy 0
G1 F8640.000
G1 X61.008 Y97.625 E-0.18663
G1 X61.526 Y97.233 E-0.14993
G1 X65.299 Y95.166 E-0.99345
G1 E-0.07000 F2100.00000
G1 Z0.400 F10800.000
G1 X144.405 Y64.062
G1 Z0.200
G1 E1.40000 F2100.00000
G1 F1200.000
G1 X139.831 Y64.062 E0.14342
G1 X139.831 Y81.161 E0.53612
G1 X142.782 Y81.161 E0.09252
G1 X141.877 Y96.075 E0.46849
G1 X139.831 Y96.075 E0.06416
G1 X139.831 Y149.075 E1.66178
G1 X105.405 Y149.075 E1.07940
G1 X105.405 Y105.638 E1.36193
G1 X140.996 Y61.149 E1.78637
G1 X145.891 Y61.149 E0.15349
G1 X145.891 Y62.696 E0.04848
G1 X145.357 Y65.650 E0.09414
G1 X144.243 Y68.567 E0.09789
G1 X144.405 Y66.900 E0.05251
G1 X144.405 Y64.122 E0.08710
G1 X144.028 Y64.439 F10800.000
G1 F1200.000
G1 X140.208 Y64.439 E0.11977
G1 X140.208 Y80.784 E0.51247
G1 X143.182 Y80.784 E0.09326
G1 X142.232 Y96.452 E0.49218
G1 X140.208 Y96.452 E0.06346
G1 X140.208 Y149.452 E1.66178
G1 X105.028 Y149.452 E1.10304
G1 X105.028 Y105.506 E1.37790
G1 X140.815 Y60.772 E1.79620
G1 X146.269 Y60.772 E0.17099
G1 X146.269 Y62.729 E0.06136
G1 X145.721 Y65.752 E0.09630
G1 X144.315 Y69.436 E0.12367
G1 X144.154 Y69.920 E0.01598
G1 X143.782 Y71.370 E0.04693
G1 X143.617 Y71.799 E0.01439
G1 X143.453 Y72.032 E0.00895
G1 X143.395 Y72.034 E0.00181
G1 X143.371 Y71.895 E0.00439
G1 X143.476 Y71.028 E0.02740
G1 X143.676 Y70.125 E0.02901
G1 X143.758 Y69.657 E0.01488
G1 X144.028 Y66.882 E0.08744
G1 X144.028 Y64.499 E0.07470
G1 X144.035 Y64.039 F10800.000
G1 X144.501 Y63.949
G1 F1200.000
G1 X141.985 Y61.432 E0.11163
G1 X141.451 Y61.432 E0.01673
G1 X143.798 Y63.779 E0.10411
G1 X143.265 Y63.779 E0.01673
G1 X141.037 Y61.551 E0.09882
G1 X140.800 Y61.848 E0.01191
G1 X142.731 Y63.779 E0.08567
G1 X142.198 Y63.779 E0.01673
G1 X140.563 Y62.144 E0.07253
G1 X140.325 Y62.441 E0.01191
G1 X141.664 Y63.779 E0.05938
G1 X141.131 Y63.779 E0.01673
G1 X140.088 Y62.737 E0.04623
G1 X139.851 Y63.033 E0.01191
G1 X140.597 Y63.779 E0.03308
G1 X140.064 Y63.779 E0.01673
G1 X139.614 Y63.330 E0.01994
G1 X139.377 Y63.626 E0.01191
G1 X139.548 Y63.797 E0.00759
G1 X139.548 Y64.331 E0.01673
G1 X139.140 Y63.922 E0.01810
G1 X138.903 Y64.219 E0.01191
G1 X139.548 Y64.864 E0.02862
G1 X139.548 Y65.397 E0.01673
G1 X138.666 Y64.515 E0.03914
G1 X138.429 Y64.812 E0.01191
G1 X139.548 Y65.931 E0.04966
G1 X139.548 Y66.464 E0.01673
G1 X138.192 Y65.108 E0.06017
G1 X137.954 Y65.404 E0.01191
G1 X139.548 Y66.998 E0.07069
G1 X139.548 Y67.531 E0.01673
G1 X137.717 Y65.701 E0.08121
G1 X137.480 Y65.997 E0.01191
G1 X139.548 Y68.065 E0.09173
G1 X139.548 Y68.598 E0.01673
G1 X137.243 Y66.293 E0.10224
G1 X137.006 Y66.590 E0.01191
G1 X139.548 Y69.132 E0.11276
G1 X139.548 Y69.665 E0.01673
G1 X136.769 Y66.886 E0.12328
G1 X136.532 Y67.183 E0.01191
G1 X139.548 Y70.199 E0.13380
G1 X139.548 Y70.732 E0.01673
G1 X136.295 Y67.479 E0.14431
G1 X136.058 Y67.775 E0.01191
G1 X139.548 Y71.266 E0.15483
G1 X139.548 Y71.799 E0.01673
G1 X135.821 Y68.072 E0.16535
G1 X135.583 Y68.368 E0.01191
G1 X139.548 Y72.333 E0.17587
G1 X139.548 Y72.866 E0.01673
G1 X135.346 Y68.664 E0.18638
G1 X135.109 Y68.961 E0.01191
G1 X139.548 Y73.400 E0.19690
G1 X139.548 Y73.933 E0.01673
G1 X134.872 Y69.257 E0.20742
G1 X134.635 Y69.554 E0.01191
G1 X139.548 Y74.467 E0.21794
G1 X139.548 Y75.000 E0.01673
G1 X134.398 Y69.850 E0.22845
G1 X134.161 Y70.146 E0.01191
G1 X139.548 Y75.534 E0.23897
G1 X139.548 Y76.067 E0.01673
G1 X133.924 Y70.443 E0.24949
G1 X133.687 Y70.739 E0.01191
G1 X139.548 Y76.601 E0.26001
G1 X139.548 Y77.134 E0.01673
G1 X133.450 Y71.035 E0.27053
G1 X133.212 Y71.332 E0.01191
G1 X139.548 Y77.668 E0.28104
G1 X139.548 Y78.201 E0.01673
G1 X132.975 Y71.628 E0.29156
G1 X132.738 Y71.925 E0.01191
G1 X139.548 Y78.734 E0.30208
G1 X139.548 Y79.268 E0.01673
G1 X132.501 Y72.221 E0.31260
G1 X132.264 Y72.517 E0.01191
G1 X139.548 Y79.801 E0.32311
G1 X139.548 Y80.335 E0.01673
G1 X132.027 Y72.814 E0.33363
G1 X131.790 Y73.110 E0.01191
G1 X139.718 Y81.038 E0.35168
G1 X139.954 Y81.274 F10800.000
G1 F1200.000
G1 X142.346 Y83.667 E0.10615
G1 X142.377 Y83.164 E0.01581
G1 X140.657 Y81.444 E0.07631
G1 X141.190 Y81.444 E0.01673
G1 X142.407 Y82.661 E0.05400
G1 X142.438 Y82.158 E0.01581
G1 X141.724 Y81.444 E0.03168
G1 X142.257 Y81.444 E0.01673
G1 X142.629 Y81.815 E0.01648
G1 F8640.000
G1 X142.257 Y81.444 E-0.12133
G1 X141.724 Y81.444 E-0.12318
G1 X142.438 Y82.158 E-0.23324
G1 X142.407 Y82.661 E-0.11635
G1 X141.190 Y81.444 E-0.39748
G1 X140.657 Y81.444 E-0.12318
G1 X141.316 Y82.103 E-0.21523
G1 E-0.07000 F2100.00000
G1 Z0.400 F10800.000
G1 X142.476 Y84.330
G1 Z0.200
G1 E1.40000 F2100.00000
G1 F1200.000
G1 X131.553 Y73.407 E0.48455
M73 Q1 S78
G1 X131.316 Y73.703 E0.01191
G1 X142.285 Y84.673 E0.48661
M73 P1 R77
G1 X142.255 Y85.176 E0.01581
G1 X131.078 Y73.999 E0.49577
G1 X130.841 Y74.296 E0.01191
G1 X142.224 Y85.679 E0.50494
G1 X142.194 Y86.182 E0.01581
G1 X130.604 Y74.592 E0.51410
G1 X130.367 Y74.888 E0.01191
G1 X142.163 Y86.685 E0.52327
G1 X142.133 Y87.188 E0.01581
G1 X130.130 Y75.185 E0.53243
G1 X129.893 Y75.481 E0.01191
G1 X142.102 Y87.691 E0.54160
G1 X142.072 Y88.193 E0.01581
G1 X129.656 Y75.778 E0.55076
G1 X129.419 Y76.074 E0.01191
G1 X142.041 Y88.696 E0.55992
G1 X142.011 Y89.199 E0.01581
G1 X129.182 Y76.370 E0.56909
G1 X128.945 Y76.667 E0.01191
G1 X141.980 Y89.702 E0.57825
G1 X141.950 Y90.205 E0.01581
G1 X128.707 Y76.963 E0.58742
G1 X128.470 Y77.259 E0.01191
G1 X141.919 Y90.708 E0.59658
G1 X141.889 Y91.211 E0.01581
G1 X128.233 Y77.556 E0.60575
G1 X127.996 Y77.852 E0.01191
G1 X141.858 Y91.714 E0.61491
G1 X141.828 Y92.217 E0.01581
G1 X127.759 Y78.149 E0.62408
G1 X127.522 Y78.445 E0.01191
G1 X141.797 Y92.720 E0.63324
G1 X141.767 Y93.223 E0.01581
G1 X127.285 Y78.741 E0.64240
G1 X127.048 Y79.038 E0.01191
G1 X141.736 Y93.726 E0.65157
G1 X141.706 Y94.229 E0.01581
G1 X126.811 Y79.334 E0.66073
G1 X126.574 Y79.630 E0.01191
G1 X141.675 Y94.732 E0.66990
G1 X141.645 Y95.235 E0.01581
G1 X126.336 Y79.927 E0.67906
G1 X126.099 Y80.223 E0.01191
G1 X141.614 Y95.738 E0.68823
G1 X141.611 Y95.792 E0.00171
G1 X141.135 Y95.792 E0.01493
G1 X125.862 Y80.520 E0.67749
G1 X125.625 Y80.816 E0.01191
G1 X140.602 Y95.792 E0.66434
G1 X140.068 Y95.792 E0.01673
G1 X125.388 Y81.112 E0.65120
G1 X125.151 Y81.409 E0.01191
G1 X139.548 Y95.806 E0.63864
G1 X139.548 Y96.339 E0.01673
G1 X124.914 Y81.705 E0.64916
G1 X124.677 Y82.001 E0.01191
G1 X139.548 Y96.873 E0.65968
G1 X139.548 Y97.406 E0.01673
G1 X124.440 Y82.298 E0.67019
G1 X124.203 Y82.594 E0.01191
G1 X139.548 Y97.940 E0.68071
G1 X139.548 Y98.473 E0.01673
G1 X123.965 Y82.891 E0.69123
G1 X123.728 Y83.187 E0.01191
G1 X139.548 Y99.007 E0.70175
G1 X139.548 Y99.540 E0.01673
G1 X123.491 Y83.483 E0.71226
G1 X123.254 Y83.780 E0.01191
G1 X139.548 Y100.074 E0.72278
G1 X139.548 Y100.607 E0.01673
G1 X123.017 Y84.076 E0.73330
G1 X122.780 Y84.372 E0.01191
G1 X139.548 Y101.141 E0.74382
G1 X139.548 Y101.674 E0.01673
G1 X122.543 Y84.669 E0.75434
G1 X122.306 Y84.965 E0.01191
G1 X139.548 Y102.208 E0.76485
G1 X139.548 Y102.741 E0.01673
G1 X122.069 Y85.262 E0.77537
G1 X121.832 Y85.558 E0.01191
G1 X139.548 Y103.275 E0.78589
G1 X139.548 Y103.808 E0.01673
G1 X121.594 Y85.854 E0.79641
G1 X121.357 Y86.151 E0.01191
G1 X139.548 Y104.341 E0.80692
G1 X139.548 Y104.875 E0.01673
G1 X121.120 Y86.447 E0.81744
G1 X120.883 Y86.743 E0.01191
G1 X139.548 Y105.408 E0.82796
G1 X139.548 Y105.942 E0.01673
G1 X120.646 Y87.040 E0.83848
G1 X120.409 Y87.336 E0.01191
G1 X139.548 Y106.475 E0.84899
G1 X139.548 Y107.009 E0.01673
G1 X120.172 Y87.633 E0.85951
G1 X119.935 Y87.929 E0.01191
G1 X139.548 Y107.542 E0.87003
G1 X139.548 Y108.076 E0.01673
G1 X119.698 Y88.225 E0.88055
G1 X119.460 Y88.522 E0.01191
G1 X139.548 Y108.609 E0.89106
G1 X139.548 Y109.143 E0.01673
G1 X119.223 Y88.818 E0.90158
G1 X118.986 Y89.115 E0.01191
G1 X139.548 Y109.676 E0.91210
G1 X139.548 Y110.210 E0.01673
G1 X118.749 Y89.411 E0.92262
M73 Q2 S77
M73 P2 R76
G1 X118.512 Y89.707 E0.01191
G1 X139.548 Y110.743 E0.93313
G1 X139.548 Y111.277 E0.01673
G1 X118.275 Y90.004 E0.94365
G1 X118.038 Y90.300 E0.01191
G1 X139.548 Y111.810 E0.95417
G1 X139.548 Y112.344 E0.01673
G1 X117.801 Y90.596 E0.96469
G1 X117.564 Y90.893 E0.01191
G1 X139.548 Y112.877 E0.97521
G1 X139.548 Y113.411 E0.01673
G1 X117.327 Y91.189 E0.98572
G1 X117.089 Y91.486 E0.01191
G1 X139.548 Y113.944 E0.99624
G1 X139.548 Y114.478 E0.01673
G1 X116.852 Y91.782 E1.00676
G1 X116.615 Y92.078 E0.01191
G1 X139.548 Y115.011 E1.01728
G1 X139.548 Y115.545 E0.01673
G1 X116.378 Y92.375 E1.02779
G1 X116.141 Y92.671 E0.01191
G1 X139.548 Y116.078 E1.03831
G1 X139.548 Y116.612 E0.01673
G1 X115.904 Y92.967 E1.04883
G1 X115.667 Y93.264 E0.01191
G1 X139.548 Y117.145 E1.05935
G1 X139.548 Y117.678 E0.01673
G1 X115.430 Y93.560 E1.06986
G1 X115.193 Y93.857 E0.01191
G1 X139.548 Y118.212 E1.08038
G1 X139.548 Y118.745 E0.01673
G1 X114.956 Y94.153 E1.09090
G1 X114.718 Y94.449 E0.01191
G1 X139.548 Y119.279 E1.10142
G1 X139.548 Y119.812 E0.01673
G1 X114.481 Y94.746 E1.11193
G1 X114.244 Y95.042 E0.01191
G1 X139.548 Y120.346 E1.12245
G1 X139.548 Y120.879 E0.01673
G1 X114.007 Y95.338 E1.13297
G1 X113.770 Y95.635 E0.01191
G1 X139.548 Y121.413 E1.14349
G1 X139.548 Y121.946 E0.01673
G1 X113.533 Y95.931 E1.15400
G1 X113.296 Y96.228 E0.01191
G1 X139.548 Y122.480 E1.16452
G1 X139.548 Y123.013 E0.01673
G1 X113.059 Y96.524 E1.17504
G1 X112.822 Y96.820 E0.01191
G1 X139.548 Y123.547 E1.18556
G1 X139.548 Y124.080 E0.01673
G1 X112.585 Y97.117 E1.19608
G1 X112.347 Y97.413 E0.01191
G1 X139.548 Y124.614 E1.20659
G1 X139.548 Y125.147 E0.01673
G1 X112.110 Y97.709 E1.21711
G1 X111.873 Y98.006 E0.01191
G1 X139.548 Y125.681 E1.22763
G1 X139.548 Y126.214 E0.01673
G1 X111.636 Y98.302 E1.23815
G1 X111.399 Y98.599 E0.01191
G1 X139.548 Y126.748 E1.24866
G1 X139.548 Y127.281 E0.01673
G1 X111.162 Y98.895 E1.25918
G1 X110.925 Y99.191 E0.01191
G1 X139.548 Y127.815 E1.26970
G1 X139.548 Y128.348 E0.01673
G1 X110.688 Y99.488 E1.28022
M73 Q3 S76
M73 P3 R75
G1 X110.451 Y99.784 E0.01191
G1 X139.548 Y128.882 E1.29073
G1 X139.548 Y129.415 E0.01673
G1 X110.214 Y100.080 E1.30125
G1 X109.976 Y100.377 E0.01191
G1 X139.548 Y129.948 E1.31177
G1 X139.548 Y130.482 E0.01673
G1 X109.739 Y100.673 E1.32229
G1 X109.502 Y100.970 E0.01191
G1 X139.548 Y131.015 E1.33280
G1 X139.548 Y131.549 E0.01673
G1 X109.265 Y101.266 E1.34332
G1 X109.028 Y101.562 E0.01191
G1 X139.548 Y132.082 E1.35384
G1 X139.548 Y132.616 E0.01673
G1 X108.791 Y101.859 E1.36436
G1 X108.554 Y102.155 E0.01191
G1 X139.548 Y133.149 E1.37487
G1 X139.548 Y133.683 E0.01673
G1 X108.317 Y102.451 E1.38539
G1 X108.080 Y102.748 E0.01191
G1 X139.548 Y134.216 E1.39591
G1 X139.548 Y134.750 E0.01673
G1 X107.842 Y103.044 E1.40643
G1 X107.605 Y103.341 E0.01191
G1 X139.548 Y135.283 E1.41694
G1 X139.548 Y135.817 E0.01673
G1 X107.368 Y103.637 E1.42746
G1 X107.131 Y103.933 E0.01191
G1 X139.548 Y136.350 E1.43798
G1 X139.548 Y136.884 E0.01673
G1 X106.894 Y104.230 E1.44850
G1 X106.657 Y104.526 E0.01191
G1 X139.548 Y137.417 E1.45902
G1 X139.548 Y137.951 E0.01673
G1 X106.420 Y104.823 E1.46953
G1 X106.183 Y105.119 E0.01191
G1 X139.548 Y138.484 E1.48005
G1 X139.548 Y139.018 E0.01673
G1 X105.946 Y105.415 E1.49057
G1 X105.709 Y105.712 E0.01191
G1 X139.548 Y139.551 E1.50109
G1 X139.548 Y140.085 E0.01673
G1 X105.688 Y106.224 E1.50201
G1 X105.688 Y106.758 E0.01673
G1 X139.548 Y140.618 E1.50201
G1 X139.548 Y141.152 E0.01673
G1 X105.688 Y107.291 E1.50201
G1 X105.688 Y107.825 E0.01673
G1 X139.548 Y141.685 E1.50201
G1 X139.548 Y142.219 E0.01673
G1 X105.688 Y108.358 E1.50201
G1 X105.688 Y108.892 E0.01673
G1 X139.548 Y142.752 E1.50201
M73 Q5 S74
M73 P5 R74
G1 X139.548 Y143.285 E0.01673
G1 X105.688 Y109.425 E1.50201
G1 X105.688 Y109.959 E0.01673
G1 X139.548 Y143.819 E1.50201
G1 X139.548 Y144.352 E0.01673
G1 X105.688 Y110.492 E1.50201
G1 X105.688 Y111.026 E0.01673
G1 X139.548 Y144.886 E1.50201
G1 X139.548 Y145.419 E0.01673
G1 X105.688 Y111.559 E1.50201
G1 X105.688 Y112.093 E0.01673
G1 X139.548 Y145.953 E1.50201
G1 X139.548 Y146.486 E0.01673
G1 X105.688 Y112.626 E1.50201
G1 X105.688 Y113.160 E0.01673
G1 X139.548 Y147.020 E1.50201
G1 X139.548 Y147.553 E0.01673
G1 X105.688 Y113.693 E1.50201
G1 X105.688 Y114.227 E0.01673
G1 X139.548 Y148.087 E1.50201
G1 X139.548 Y148.620 E0.01673
G1 X105.688 Y114.760 E1.50201
G1 X105.688 Y115.294 E0.01673
G1 X139.187 Y148.792 E1.48598
G1 X138.653 Y148.792 E0.01673
G1 X105.688 Y115.827 E1.46231
G1 X105.688 Y116.360 E0.01673
G1 X138.120 Y148.792 E1.43865
G1 X137.586 Y148.792 E0.01673
G1 X105.688 Y116.894 E1.41499
G1 X105.688 Y117.427 E0.01673
G1 X137.053 Y148.792 E1.39132
G1 X136.519 Y148.792 E0.01673
G1 X105.688 Y117.961 E1.36766
G1 X105.688 Y118.494 E0.01673
G1 X135.986 Y148.792 E1.34399
G1 X135.452 Y148.792 E0.01673
G1 X105.688 Y119.028 E1.32033
G1 X105.688 Y119.561 E0.01673
G1 X134.919 Y148.792 E1.29666
G1 X134.385 Y148.792 E0.01673
G1 X105.688 Y120.095 E1.27300
G1 X105.688 Y120.628 E0.01673
G1 X133.852 Y148.792 E1.24933
G1 X133.318 Y148.792 E0.01673
G1 X105.688 Y121.162 E1.22567
G1 X105.688 Y121.695 E0.01673
G1 X132.785 Y148.792 E1.20200
G1 X132.252 Y148.792 E0.01673
G1 X105.688 Y122.229 E1.17834
G1 X105.688 Y122.762 E0.01673
G1 X131.718 Y148.792 E1.15467
G1 X131.185 Y148.792 E0.01673
G1 X105.688 Y123.296 E1.13101
M73 Q6 S73
M73 P6 R73
G1 X105.688 Y123.829 E0.01673
G1 X130.651 Y148.792 E1.10735
G1 X130.118 Y148.792 E0.01673
G1 X105.688 Y124.363 E1.08368
G1 X105.688 Y124.896 E0.01673
G1 X129.584 Y148.792 E1.06002
G1 X129.051 Y148.792 E0.01673
G1 X105.688 Y125.430 E1.03635
G1 X105.688 Y125.963 E0.01673
G1 X128.517 Y148.792 E1.01269
G1 X127.984 Y148.792 E0.01673
G1 X105.688 Y126.497 E0.98902
